X: 9
T:Booth Shot Lincoln
C:Traditional
S:https://www.mandolincafe.com/te/tabledit_files/BoothShotLincoln-A-trad.tef
L:1/8
Q:1/4=235
M:4/4
K:A
z6 AF |: "A"E2 C2 E3E | "D"FA2F A4 | "A"z2 cB Ac BA | {E}"D"F6 AF | "A"E2 C2 E3E | 
"D"FA2F A2 ef | "A"e2 cB "E"Ac Bc |1 A4 [E2A,2] AF :|2 A4 [E4A,4] |] {=c}"A"^ce2c e4 | 
"D"[fA]a2f a2 fa | "A"e2 cB Ac BA | "D"[A2F2] FF [A4F4] | {=c}"A"^ce2c e4 | "D"[fA]a2f a2 fa | 
"A"e2 cB "E"Ac Bc | "A"A4 [E4A,4] | {=c}"A"^ce2c e4 | "D"[fA]a2f a2 fa | "A"e2 cB Ac BA | 
"D"[A6F6] FF | "A"E2 C2 E3E | "D"FA2F A2 ef | "A"e2 cB "E"Ac Bc | "A"A4 [E4A,4] |

